X: 34957
T: Rocky Road To Dublin, The
R: slip jig
M: 9/8
K: Edorian
|:B2B A2F E2B,|B,2E E2F G2A|B=cB AGF EFG|F2E D2E FGA:|
|:B2e e2c d2B|Bce edc dBA|Bce edc d2B|AFD D2E FGA:|

